svgs/solid/pen-clip.svg

<svg xmlns="http://www.w3.org/2000/svg" viewBox="0 0 512 512"><!-- Font Awesome Pro 6.0.0-alpha2 by @fontawesome - https://fontawesome.com License - https://fontawesome.com/license (Commercial License) --><path d="M497.94 74.176L437.824 14.06C419.076 -4.687 388.581 -4.687 369.834 14.06L313.342 70.677L441.323 198.658L497.94 142.166C516.687 123.419 516.687 92.924 497.94 74.176ZM251.101 53.68C235.479 38.057 210.232 38.057 194.61 53.68L75.753 172.412C69.503 178.661 69.503 188.784 75.753 195.033L87.062 206.343C93.311 212.592 103.435 212.592 109.684 206.343L222.856 93.296L256.789 127.23L94 290.019C41.508 342.511 8.388 411.376 0.139 485.115V485.365C-1.486 500.613 11.387 513.486 26.635 511.861C100.499 503.737 169.364 470.617 221.981 418L418.701 221.28L251.101 53.68Z"/></svg>

<svg xmlns="http://www.w3.org/2000/svg" viewBox="0 0 512 512"><!--! Font Awesome Pro 6.0.0-alpha3 by @fontawesome - https://fontawesome.com License - https://fontawesome.com/license (Commercial License) --><path d="M497.9 74.18l-60.12-60.12c-18.75-18.75-49.24-18.75-67.99 0l-56.49 56.62l127.1 127.1l56.62-56.49C516.7 123.4 516.7 92.92 497.9 74.18zM251.1 53.68c-15.62-15.62-40.87-15.62-56.49 0L75.75 172.4c-6.249 6.249-6.249 16.37 0 22.62l11.31 11.31c6.249 6.249 16.37 6.249 22.62 0l113.2-113l33.93 33.93L94.01 290c-52.49 52.49-85.61 121.4-93.86 195.2c-1.625 15.25 11.25 28.32 26.49 26.7c73.86-8.124 142.7-41.25 195.3-93.86l196.7-196.7L251.1 53.68z"/></svg>
